X: 16397
T: Gyn Ennym!
R: slide
M: 12/8
K: Gmajor
D|:G2G GAB dBe dBG|A2A AGA BAG E2D|
G2G GAB dBe dBG|1 ABc AGF G3 GDE:|2 ABc AGF G3 GBd||
|:e2e e2d e2f gfe|d2B BAG BAGE2D|
G2G GAB dBe dBG|1 ABc AGF G3 GBd:|2 ABc AGF G3 G2||

